X:543
T:Miller's Man, The
R:Strathspey
B:The Athole Collection
M:C|
L:1/8
K:D
A,|D<D F>D E>DF>D|A,<A, A,>B, E2 E>F|D<D F>D E>DF>D|
A,<A, A,>B, D2D:|
|:f|d<d f>d e>df>d|B>A B<d e3f|1d<d f>d e>df>d|A>B A<F D2D:|2
a>fe>d B<d A>F|A>BA>F D2D||

